!!!COM: Palestrina, Giovanni Perluigi da
!!!OPR: Benedicta es
!!!OTL: Gloria
**kern	**kern	**kern	**kern	**kern	**kern
*Ibass	*Ibass	*Itenor	*Icalto	*Icalto	*Icant
!Bassus 2	!Bassus 1	!Tenor	!Altus 2	!Altus 1	!Cantus
*clefF4	*clefF4	*clefGv2	*clefG2	*clefG2	*clefG2
*k[]	*k[]	*k[]	*k[]	*k[]	*k[]
*G:mix	*G:mix	*G:mix	*G:mix	*G:mix	*G:mix
*M4/2	*M4/2	*M4/2	*M4/2	*M4/2	*M4/2
=1	=1	=1	=1	=1	=1
0r	0r	0r	0r	1G	0r
.	.	.	.	1G	.
=2	=2	=2	=2	=2	=2
0r	0r	0r	0r	2B	0g
.	.	.	.	2c	.
.	.	.	.	2G	.
.	.	.	.	[2c	.
=3	=3	=3	=3	=3	=3
0r	0r	0r	1G	2c]	[0g
.	.	.	.	4B	.
.	.	.	.	4A	.
.	.	.	1G	2.B	.
.	.	.	.	4c	.
=4	=4	=4	=4	=4	=4
0r	0r	0r	2B	2d	0g]
.	.	.	2c	2e	.
.	.	.	2G	2d	.
.	.	.	[2g	2G	.
=5	=5	=5	=5	=5	=5
0r	0r	0r	2g]	2.d	0a
.	.	.	4f	.	.
.	.	.	4e	4c	.
.	.	.	2f	4d	.
.	.	.	.	4e	.
.	.	.	[2d	[2f	.
=6	=6	=6	=6	=6	=6
0r	0r	0r	4d]	4f]	0a
.	.	.	4c	4e	.
.	.	.	4d	4d	.
.	.	.	4e	4c	.
.	.	.	4f	1d	.
.	.	.	2g	.	.
.	.	.	4f#	.	.
=7	=7	=7	=7	=7	=7
0r	1GG	0G	1g	2d	0b
.	.	.	.	4G	.
.	.	.	.	4A	.
.	1GG	.	4G	4B	.
.	.	.	4A	4c	.
.	.	.	4B	[2d	.
.	.	.	4c	.	.
=8	=8	=8	=8	=8	=8
0r	2BB	0G	2d	2d]	1g
.	2C	.	2e	2c	.
.	2GG	.	2d	1B	2.b
.	[2G	.	2d	.	.
.	.	.	.	.	4cc
=9	=9	=9	=9	=9	=9
0r	2G]	0A	[0D	1A	2dd
.	4F	.	.	.	2.d
.	4E	.	.	.	.
.	2F	.	.	[1d	.
.	.	.	.	.	4e
.	[2D	.	.	.	4f
.	.	.	.	.	4g
=10	=10	=10	=10	=10	=10
0r	4D]	0A	0D]	1d]	0a
.	4C	.	.	.	.
.	4D	.	.	.	.
.	4E	.	.	.	.
.	4F	.	.	2r	.
.	2G	.	.	.	.
.	.	.	.	[2d	.
.	4F#	.	.	.	.
=11	=11	=11	=11	=11	=11
1GG	0G	1B	4G	2d]	[0g
.	.	.	4A	.	.
.	.	.	4B	4G	.
.	.	.	4c	4A	.
1GG	.	1B	2d	4B	.
.	.	.	.	4c	.
.	.	.	2G	[2d	.
=12	=12	=12	=12	=12	=12
2BB	0r	1G	2d	2d]	1g]
2C	.	.	2e	2c	.
2GG	.	1G	[1d	1B	1r
[2G	.	.	.	.	.
=13	=13	=13	=13	=13	=13
2G]	1.D	0A	1d]	1A	0a
4F	.	.	.	.	.
4E	.	.	.	.	.
4F	.	.	1r	1d	.
4G	.	.	.	.	.
4A	2D	.	.	.	.
4F	.	.	.	.	.
=14	=14	=14	=14	=14	=14
1G	2E	0r	1r	2.B	1g
.	2E	.	.	.	.
.	.	.	.	8c	.
.	.	.	.	8d	.
2.E	2.C	.	[1G	1e	1cc
4F	4D	.	.	.	.
=15	=15	=15	=15	=15	=15
2G	4E	0r	2G]	2r	1b
.	4F	.	.	.	.
2GG	1G	.	2G	1d	.
1D	.	.	1A	.	1a
.	2F	.	.	2d	.
=16	=16	=16	=16	=16	=16
0r	2E	0r	2B	2e	2g
.	4AA	.	2.c	2e	1a
.	4BB	.	.	.	.
.	4C	.	.	1c	.
.	4D	.	4B	.	.
.	2E	.	2G	.	[2g
=17	=17	=17	=17	=17	=17
2r	0D	0A	2A	2.d	2g]
1D	.	.	2D	.	4f#
.	.	.	.	8c	4e
.	.	.	.	8B	.
.	.	.	1d	2A	1f#
2D	.	.	.	2D	.
=18	=18	=18	=18	=18	=18
2E	1G	1G	2.B	1r	0g
2E	.	.	.	.	.
.	.	.	8c	.	.
.	.	.	8d	.	.
2.C	2.E	1c	1e	2r	.
.	.	.	.	[2G	.
4D	4F	.	.	.	.
=19	=19	=19	=19	=19	=19
4E	2G	1B	2r	2G]	1g
4F	.	.	.	.	.
1G	2GG	.	1d	2G	.
.	1D	1A	.	1A	1r
2F	.	.	2d	.	.
=20	=20	=20	=20	=20	=20
2E	0r	2G	2e	2B	0r
4AA	.	1A	2e	2.c	.
4BB	.	.	.	.	.
4C	.	.	1c	.	.
4D	.	.	.	4B	.
2E	.	2G	.	2G	.
=21	=21	=21	=21	=21	=21
0D	1r	2G	0d	0A	1r
.	.	4F#	.	.	.
.	.	4E	.	.	.
.	1D	1F#	.	.	1a
=22	=22	=22	=22	=22	=22
0r	1.G	1G	2r	0G	1.b
.	.	.	2d	.	.
.	.	1r	[1e	.	.
.	2E	.	.	.	2g
=23	=23	=23	=23	=23	=23
0r	1E	0r	2e]	0r	1g
.	.	.	2c	.	.
.	1F	.	2c	.	1a
.	.	.	2A	.	.
=24	=24	=24	=24	=24	=24
0r	1G	0r	2B	0r	2g
.	.	.	2.d	.	2f
.	1A	.	.	.	2e
.	.	.	4c#	.	.
.	.	.	2c#	.	2e
=25	=25	=25	=25	=25	=25
1D	2F	1A	2d	1r	0d
.	1G	.	4c	.	.
.	.	.	4B	.	.
1D	.	1A	4A	1d	.
.	.	.	4G	.	.
.	2F#	.	2A	.	.
=26	=26	=26	=26	=26	=26
1.G	1G	1.B	0G	1d	0r
.	1r	.	.	[1e	.
2E	.	2G	.	.	.
=27	=27	=27	=27	=27	=27
1E	0r	1G	1r	2e]	0r
.	.	.	.	2c	.
2.F	.	1A	2r	1c	.
.	.	.	2A	.	.
4E	.	.	.	.	.
=28	=28	=28	=28	=28	=28
4D	0r	2F	2A	1d	0r
4C	.	.	.	.	.
2BB	.	2D	2G	.	.
2AA	.	2E	2A	2c	.
2GG	.	[2G	2d	2B	.
=29	=29	=29	=29	=29	=29
1D	1r	2G]	[0d	1A	0r
.	.	4F#	.	.	.
.	.	4E	.	.	.
1D	[1D	1F#	.	1A	.
=30	=30	=30	=30	=30	=30
1GG	2D]	0G	1d]	2B	1.b
.	2D	.	.	1d	.
[1GG	1D	.	[1B	.	.
.	.	.	.	2d	2b
=31	=31	=31	=31	=31	=31
2GG]	1.G	1r	2B]	1d	0b
2GG	.	.	2B	.	.
1GG	.	[1G	1B	[1g	.
.	2G	.	.	.	.
=32	=32	=32	=32	=32	=32
1.C	0E	2G]	2.e	2g]	[0cc
.	.	2G	.	2g	.
.	.	.	4f	.	.
.	.	2G	2g	[1e	.
2C	.	[2c	2g	.	.
=33	=33	=33	=33	=33	=33
0AA	2.A	2c]	2c	1e]	1cc]
.	.	2c	4A	.	.
.	4G	.	4B	.	.
.	2F	[1A	4c	2.a	1cc
.	.	.	4d	.	.
.	2E	.	4e	.	.
.	.	.	4c	4g	.
=34	=34	=34	=34	=34	=34
0D	1F	1A]	2.d	4f	0a
.	.	.	.	4e	.
.	.	.	.	1d	.
.	.	.	4e	.	.
.	[1D	2.d	1f	.	.
.	.	.	.	2A	.
.	.	4c	.	.	.
=35	=35	=35	=35	=35	=35
0GG	2D]	4B	1g	2.d	0b
.	.	4A	.	.	.
.	2.G	2B	.	.	.
.	.	.	.	4c	.
.	.	[1G	2r	4B	.
.	4F	.	.	4A	.
.	4E	.	[2d	[2B	.
.	4D	.	.	.	.
=36	=36	=36	=36	=36	=36
2r	1E	1G]	2d]	2B]	1g
1G	.	.	2c#	4A	.
.	.	.	.	4G	.
.	1D	1r	2.d	1A	2r
2F#	.	.	.	.	[2dd
.	.	.	4c	.	.
=37	=37	=37	=37	=37	=37
1G	2r	0r	2B	1G	4dd]
.	.	.	.	.	4cc
.	1G	.	2G	.	2b
1D	.	.	1A	2r	1a
.	2F#	.	.	[2d	.
=38	=38	=38	=38	=38	=38
1r	1G	2r	2G	2d]	1b
.	.	1G	2.g	2d	.
1C	1C	.	.	1e	1g
.	.	.	4f	.	.
.	.	2G	[2e	.	.
=39	=39	=39	=39	=39	=39
1AA	0r	1A	4e]	1c	0r
.	.	.	4d	.	.
.	.	.	4c	.	.
.	.	.	4B	.	.
1D	.	1F	1A	2.d	.
.	.	.	.	4d	.
=40	=40	=40	=40	=40	=40
2GG	0r	2.G	2B	2d	0r
2C	.	.	2c	1e	.
.	.	4G	.	.	.
2E	.	2G	2B	.	.
2F	.	[2A	2A	[2d	.
=41	=41	=41	=41	=41	=41
1E	1r	2A]	2B	2d]	1r
.	.	1G	2G	2c#	.
1D	2r	.	[1A	[1d	1a
.	2D	4F#	.	.	.
.	.	4E	.	.	.
=42	=42	=42	=42	=42	=42
1r	2D	1F#	1A]	1d]	2a
.	2D	.	.	.	2a
1GG	[1G	1G	2r	2r	1b
.	.	.	2d	2B	.
=43	=43	=43	=43	=43	=43
2GG	1G]	0r	2d	2B	0g
2GG	.	.	2d	2B	.
1C	1E	.	1e	2.c	.
.	.	.	.	4d	.
=44	=44	=44	=44	=44	=44
1AA	1A	0r	1c	1e	1a
1r	2F#	.	1d	2A	2a
.	[2G	.	.	2G	[2b
=45	=45	=45	=45	=45	=45
0r	4G]	0r	2d	1B	4b]
.	4F#	.	.	.	4a
.	2G	.	2.e	.	1g
.	1A	.	.	1c	.
.	.	.	4d	.	.
.	.	.	[2c	.	2f#
=46	=46	=46	=46	=46	=46
1GG	0G	1r	2c]	2d	0g
.	.	.	4B	1d	.
.	.	.	4A	.	.
1GG	.	[1G	1B	.	.
.	.	.	.	2d	.
=47	=47	=47	=47	=47	=47
1C	0r	2G]	2c	1e	0r
.	.	2G	2.e	.	.
1AA	.	1A	.	1c	.
.	.	.	4e	.	.
.	.	.	2e	.	.
=48	=48	=48	=48	=48	=48
1D	0r	1F	2A	1d	0r
.	.	.	2B	.	.
[1C	.	2G	2c	[1e	.
.	.	[2A	2c	.	.
=49	=49	=49	=49	=49	=49
2C]	0r	4A]	1G	2e]	1g
.	.	4G	.	.	.
2BB	.	2.G	.	2d	.
1AA	.	.	2r	1c	2a
.	.	4F#	.	.	.
.	.	4F#	2c	.	2a
.	.	4E	.	.	.
=50	=50	=50	=50	=50	=50
1GG	0r	1G	2d	1B	1b
.	.	.	2d	.	.
1r	.	1c	1e	1r	1g
=51	=51	=51	=51	=51	=51
0r	0r	2A	1c	0r	2.cc
.	.	2A	.	.	.
.	.	.	.	.	4b
.	.	1d	2.f	.	4a
.	.	.	.	.	4g
.	.	.	.	.	[2a
.	.	.	4e	.	.
=52	=52	=52	=52	=52	=52
0r	0r	2A	4c	0r	2a]
.	.	.	4d	.	.
.	.	2.c	2.e	.	4g
.	.	.	.	.	4f
.	.	.	.	.	2.g
.	.	4B	4d	.	.
.	.	2G	[2d	.	.
.	.	.	.	.	4f
=53	=53	=53	=53	=53	=53
0r	1r	2A	2d]	0A	2e
.	.	2A	2c#	.	2e
.	[1D	2D	1d	.	1d
.	.	[2A	.	.	.
=54	=54	=54	=54	=54	=54
1r	1D]	2A]	1f#	[0d	1a
.	.	2.d	.	.	.
[1GG	2.G	.	2g	.	2.b
.	.	4c	.	.	.
.	.	4B	[2G	.	.
.	4A	4A	.	.	4cc
=55	=55	=55	=55	=55	=55
1GG]	2B	1G	4G]	1d]	1dd
.	.	.	4A	.	.
.	2.G	.	2B	.	.
2.C	.	2.E	2.c	[1e	[1g
.	4F	.	.	.	.
.	4E	.	.	.	.
4D	4D	4F	4B	.	.
=56	=56	=56	=56	=56	=56
2E	2.C	2G	4c	1e]	1g]
.	.	.	4d	.	.
2.C	.	1E	2.e	.	.
.	4D	.	.	.	.
.	1E	.	.	[1c	2.cc
4BB	.	.	4d	.	.
4AA	.	[2A	[2c	.	.
4GG	.	.	.	.	4b
=57	=57	=57	=57	=57	=57
0FF	0F	4A]	4c]	1c]	0a
.	.	4G	4B	.	.
.	.	4A	4A	.	.
.	.	4B	4G	.	.
.	.	1c	2A	2r	.
.	.	.	[2c	2f	.
=58	=58	=58	=58	=58	=58
1C	1G	1c	4c]	2e	2g
.	.	.	4d	.	.
.	.	.	4e	2c	2cc
.	.	.	4f	.	.
1r	1r	2r	1g	1e	2b
.	.	2c	.	.	2g
=59	=59	=59	=59	=59	=59
0r	1G	2B	1g	0d	1b
.	.	2G	.	.	.
.	2F	[1A	2r	.	[1a
.	2D	.	2d	.	.
=60	=60	=60	=60	=60	=60
0r	1F	1A]	2c	2r	1a]
.	.	.	2A	2f	.
.	1C	[1G	4c	2e	2r
.	.	.	4d	.	.
.	.	.	4e	2c	2cc
.	.	.	4f	.	.
=61	=61	=61	=61	=61	=61
2r	1r	0G]	1g	1e	2b
2C	.	.	.	.	2g
2BB	1G	.	1g	[1d	1b
2GG	.	.	.	.	.
=62	=62	=62	=62	=62	=62
1D	2F	1r	2r	1d]	2.a
.	2D	.	2f	.	.
.	.	.	.	.	4b
1C	[1E	1c	2e	2r	1cc
.	.	.	4c	[2e	.
.	.	.	4d	.	.
=63	=63	=63	=63	=63	=63
2r	1E]	2B	4e	2e]	1g
.	.	.	4f	.	.
2C	.	2G	2.g	2c	.
2BB	[1D	1B	.	[1d	1r
.	.	.	4d	.	.
2GG	.	.	[2g	.	.
=64	=64	=64	=64	=64	=64
1D	1D]	1A	2g]	1d]	1a
.	.	.	2f#	.	.
1GG	1r	[1G	2g	2B	2.b
.	.	.	2G	2d	.
.	.	.	.	.	4g
=65	=65	=65	=65	=65	=65
2r	1GG	1G]	2B	2d	2g
2G	.	.	2B	2d	2dd
2G	2C	1r	2c	4e	2cc
.	.	.	.	4f	.
2G	2GG	.	2d	[2g	2b
=66	=66	=66	=66	=66	=66
1A	1D	1A	1d	2g]	2a
.	.	.	.	2f#	2.dd
1G	1GG	2.B	2r	2g	.
.	.	.	.	.	4cc
.	.	.	2d	[2G	[2b
.	.	4G	.	.	.
=67	=67	=67	=67	=67	=67
1GG	1G	2G	2d	4G]	4b]
.	.	.	.	4A	4a
.	.	2d	2d	2B	4g
.	.	.	.	.	4f
2C	2G	2c	2e	2c	4e
.	.	.	.	.	4f
2GG	2G	2B	[2d	2d	[2g
=68	=68	=68	=68	=68	=68
0D	1A	0A	2d]	0d	2g]
.	.	.	4c	.	4f#
.	.	.	4B	.	4e
.	1D	.	1A	.	1f#
=69	=69	=69	=69	=69	=69
0GG	0D	0G	0G	0d	0g
=70	=70	=70	=70	=70	=70
0r	0r	0r	1r	1r	0g
.	.	.	[1c	[1e	.
=71	=71	=71	=71	=71	=71
0r	0r	0r	1c]	1e]	1a
.	.	.	1d	1f	2a
.	.	.	.	.	2a
=72	=72	=72	=72	=72	=72
0r	0r	0r	2d	2f	2b
.	.	.	2d	2f	2.a
.	.	.	2c	2e	.
.	.	.	.	.	4g
.	.	.	2B	2d	[2g
=73	=73	=73	=73	=73	=73
0r	0r	1r	1A	1c	2g]
.	.	.	.	.	2f#
.	.	[1G	4B	1d	[1g
.	.	.	2c	.	.
.	.	.	4B	.	.
=74	=74	=74	=74	=74	=74
0C	0E	1G]	0c	0e	1g]
.	.	1A	.	.	1r
=75	=75	=75	=75	=75	=75
1D	1F	2A	0r	0r	0r
.	.	2A	.	.	.
2D	2F	2B	.	.	.
2D	2F	[2A	.	.	.
=76	=76	=76	=76	=76	=76
2C	2E	4A]	2r	0r	0r
.	.	4G	.	.	.
2BB	2D	1G	2G	.	.
1AA	1C	.	2A	.	.
.	.	2F#	[2c	.	.
=77	=77	=77	=77	=77	=77
[0GG	1D	0G	2c]	1d	1r
.	.	.	4B	.	.
.	.	.	4A	.	.
.	1G	.	2B	1d	1b
.	.	.	2G	.	.
=78	=78	=78	=78	=78	=78
1GG]	1G	1r	2.g	1.e	1b
.	.	.	4f	.	.
1r	[1A	1c	4e	.	[1cc
.	.	.	4d	.	.
.	.	.	4c	2e	.
.	.	.	4B	.	.
=79	=79	=79	=79	=79	=79
0r	2A]	1c	1A	2f	2cc]
.	2A	.	.	2.e	2a
.	2G	2d	1r	.	2b
.	.	.	.	4d	.
.	2F	2A	.	[2d	[2a
=80	=80	=80	=80	=80	=80
0r	1E	2B	0r	2d]	4a]
.	.	.	.	.	4g
.	.	2G	.	2c#	1g
.	1D	1A	.	1d	.
.	.	.	.	.	2f#
=81	=81	=81	=81	=81	=81
0GG	2r	2.G	0d	0B	1g
.	2D	.	.	.	.
.	.	4A	.	.	.
.	1G	4B	.	.	1r
.	.	4c	.	.	.
.	.	4d	.	.	.
.	.	4B	.	.	.
=82	=82	=82	=82	=82	=82
1C	2G	1c	1e	1r	0g
.	2G	.	.	.	.
2C	2E	1G	[1e	[1c	.
2C	2E	.	.	.	.
=83	=83	=83	=83	=83	=83
2AA	2.A	0r	2e]	1c]	1a
2AA	.	.	2e	.	.
.	4G	.	.	.	.
1D	2F	.	1f	1d	2a
.	2D	.	.	.	2a
=84	=84	=84	=84	=84	=84
1GG	2.G	1r	2d	2d	1b
.	.	.	2.g	2d	.
.	4F	.	.	.	.
2r	4E	[1G	.	[1e	[1g
.	4D	.	4f	.	.
[2G	2E	.	4e	.	.
.	.	.	4d	.	.
=85	=85	=85	=85	=85	=85
4G]	2.C	1G]	2e	1e]	2g]
4F	.	.	.	.	.
4E	.	.	2.c	.	2.cc
4D	4BB	.	.	.	.
2E	1AA	1A	.	1c	.
.	.	.	4d	.	4b
2A	.	.	2e	.	4a
.	.	.	.	.	4g
=86	=86	=86	=86	=86	=86
4F	1D	2A	1d	2.f	1a
4G	.	.	.	.	.
4A	.	2A	.	.	.
4F	.	.	.	4e	.
1G	1GG	1B	2r	4d	[1g
.	.	.	.	4c	.
.	.	.	[2g	2d	.
=87	=87	=87	=87	=87	=87
0C	0r	2G	4g]	2.e	1g]
.	.	.	4f	.	.
.	.	2.c	4e	.	.
.	.	.	4d	4f	.
.	.	.	1e	4g	[1cc
.	.	4B	.	4a	.
.	.	4A	.	[2g	.
.	.	4G	.	.	.
=88	=88	=88	=88	=88	=88
0r	0r	1A	1c	2g]	1cc]
.	.	.	.	2f#	.
.	.	1G	1d	1g	[1b
=89	=89	=89	=89	=89	=89
1r	1.G	1.B	1r	1.d	1b]
[1GG	.	.	[1g	.	1r
.	2G	2B	.	2d	.
=90	=90	=90	=90	=90	=90
2GG]	0G	2.B	2g]	4d	1.b
.	.	.	.	4c	.
2GG	.	.	2g	4B	.
.	.	4c	.	4A	.
1GG	.	1d	2g	[1B	.
.	.	.	[2d	.	2b
=91	=91	=91	=91	=91	=91
1G	2r	0r	2d]	0B]	0b
.	1G	.	2d	.	.
1E	.	.	1e	.	.
.	2G	.	.	.	.
=92	=92	=92	=92	=92	=92
2.F	1A	0r	1c	1r	0r
4E	.	.	.	.	.
1D	1F	.	1d	2r	.
.	.	.	.	[2d	.
=93	=93	=93	=93	=93	=93
1GG	1G	0r	1B	2d]	1.g
.	.	.	.	2d	.
1C	1E	.	2.c	1e	.
.	.	.	.	.	2g
.	.	.	4B	.	.
=94	=94	=94	=94	=94	=94
1FF	2.F	0r	4A	1c	1a
.	.	.	4G	.	.
.	.	.	2F	.	.
.	4E	.	.	.	.
1r	4D	.	1A	1d	1f
.	4C	.	.	.	.
.	2D	.	.	.	.
=95	=95	=95	=95	=95	=95
0r	1E	2r	4G	1B	1g
.	.	.	4E	.	.
.	.	2G	2.e	.	.
.	1C	2G	.	2c	1e
.	.	.	4d	.	.
.	.	[2A	4c	[2e	.
.	.	.	4B	.	.
=96	=96	=96	=96	=96	=96
0r	1D	2A]	1A	4e]	2f
.	.	.	.	4d	.
.	.	2F	.	1d	2.a
.	1E	2G	1r	.	.
.	.	.	.	.	4g
.	.	2G	.	2c#	[2g
=97	=97	=97	=97	=97	=97
0r	1D	1A	0r	1d	2g]
.	.	.	.	.	2f#
.	[1GG	1G	.	[1B	1g
=98	=98	=98	=98	=98	=98
1G	1GG]	0r	0d	1B]	2r
.	.	.	.	.	2g
2F#	1r	.	.	1r	2a
[2G	.	.	.	.	[2b
=99	=99	=99	=99	=99	=99
2G]	0r	0r	0d	0r	2b]
4F#	.	.	.	.	4a
4E	.	.	.	.	4g
2F#	.	.	.	.	2a
2G	.	.	.	.	2b
=100	=100	=100	=100	=100	=100
4C	0r	1c	0e	0r	1g
4D	.	.	.	.	.
4E	.	.	.	.	.
4F	.	.	.	.	.
2G	.	2B	.	.	2r
[2A	.	[2c	.	.	[2a
=101	=101	=101	=101	=101	=101
2A]	0r	2c]	0e	0r	2a]
4G	.	4B	.	.	1b
4F#	.	4A	.	.	.
2G	.	2B	.	.	.
2A	.	2c	.	.	2a
=102	=102	=102	=102	=102	=102
2.D	0r	1.d	1.f	0r	1a
4E	.	.	.	.	.
2F	.	.	.	.	2.dd
[2G	.	2B	2d	.	.
.	.	.	.	.	4cc
=103	=103	=103	=103	=103	=103
4G]	0r	2B	2d	0r	4b
4F	.	.	.	.	4a
4E	.	2.c	1e	.	4g
4D	.	.	.	.	4f
2C	.	.	.	.	2e
.	.	4B	.	.	.
2D	.	2A	[2d	.	2f#
=104	=104	=104	=104	=104	=104
1E	2r	2G	2d]	0r	1g
.	2G	2G	2c#	.	.
2D	2F#	2A	1d	.	1r
4GG	[2G	[2B	.	.	.
4AA	.	.	.	.	.
=105	=105	=105	=105	=105	=105
4BB	2G]	2B]	0r	1d	0r
4C	.	.	.	.	.
1D	4F#	4A	.	.	.
.	4E	4G	.	.	.
.	2F#	2A	.	1d	.
2GG	2G	2B	.	.	.
=106	=106	=106	=106	=106	=106
2.C	4C	2c	0r	0e	1cc
.	4D	.	.	.	.
.	4E	2.G	.	.	.
4D	4F	.	.	.	.
2E	2G	.	.	.	2b
.	.	4F	.	.	.
4AA	[2A	4E	.	.	[2cc
4BB	.	4D	.	.	.
=107	=107	=107	=107	=107	=107
4C	2A]	1E	0r	0e	2cc]
4D	.	.	.	.	.
1E	4G	.	.	.	4b
.	4F#	.	.	.	4a
.	2G	2r	.	.	2b
2AA	2A	[2A	.	.	2cc
=108	=108	=108	=108	=108	=108
1.D	2.D	2A]	0r	1.f	2.dd
.	.	2A	.	.	.
.	4E	.	.	.	8cc
.	.	.	.	.	8b
.	2F	2.d	.	.	2a
2GG	[2G	.	.	2d	2b
.	.	4c	.	.	.
=109	=109	=109	=109	=109	=109
1GG	4G]	4B	0r	2d	1g
.	4F	4A	.	.	.
.	4E	1G	.	1e	.
.	4D	.	.	.	.
1r	2C	.	.	.	1a
.	2D	2F#	.	[2d	.
=110	=110	=110	=110	=110	=110
2r	1E	1G	1r	4d]	1g
.	.	.	.	8c#	.
.	.	.	.	8B	.
1G	.	.	.	2c#	.
.	1D	1A	2r	1d	1r
2F	.	.	[2d	.	.
=111	=111	=111	=111	=111	=111
1E	2r	1G	2d]	0r	0r
.	1G	.	2c	.	.
1D	.	1r	2B	.	.
.	2F	.	2A	.	.
=112	=112	=112	=112	=112	=112
2C	2E	2r	2A	0r	0r
2BB	2D	1d	2G	.	.
1AA	2E	.	1A	.	.
.	2F	2c	.	.	.
=113	=113	=113	=113	=113	=113
2GG	2G	2B	0d	0r	1r
2D	2F	2A	.	.	.
1GG	2.G	2B	.	.	[1dd
.	.	2B	.	.	.
.	4F	.	.	.	.
=114	=114	=114	=114	=114	=114
1r	1E	1G	0r	1.g	2dd]
.	.	.	.	.	2cc
2r	1D	1d	.	.	2b
2D	.	.	.	2f	2a
=115	=115	=115	=115	=115	=115
2E	0r	1r	0r	2e	2g
2F	.	.	.	2d	2f
2G	.	2r	.	2d	1e
2A	.	[2A	.	2c#	.
=116	=116	=116	=116	=116	=116
2F	1r	2A]	0r	0d	1d
1G	.	1B	.	.	.
.	[1G	.	.	.	1r
4F	.	4A	.	.	.
4E	.	4G	.	.	.
=117	=117	=117	=117	=117	=117
2D	2G]	2B	1r	1d	0r
2D	2F	2A	.	.	.
2G	2E	2c	2r	1r	.
2F	2D	2B	2d	.	.
=118	=118	=118	=118	=118	=118
2.E	2.C	2A	1.e	0r	1r
.	.	1G	.	.	.
4D	4BB	.	.	.	.
1C	2AA	.	.	.	[1cc
.	2AA	2F#	4d	.	.
.	.	.	4c	.	.
=119	=119	=119	=119	=119	=119
0r	1GG	1G	2e	0r	2cc]
.	.	.	2d	.	2b
.	2r	1r	2f	.	2a
.	2C	.	2e	.	2g
=120	=120	=120	=120	=120	=120
0r	2D	0r	2d	0r	2f
.	2E	.	1c	.	2e
.	2F	.	.	.	2.d
.	2G	.	2B	.	.
.	.	.	.	.	4e
=121	=121	=121	=121	=121	=121
0r	2.A	0r	1c	2r	2f
.	.	.	.	1A	2.e
.	4G	.	.	.	.
.	2F	.	1d	.	.
.	.	.	.	.	4d
.	2G	.	.	[2B	[2d
=122	=122	=122	=122	=122	=122
2r	1E	0r	1G	2B]	2d]
1G	.	.	.	4A	2c#
.	.	.	.	4G	.
.	1D	.	1r	2B	1d
2F	.	.	.	2A	.
=123	=123	=123	=123	=123	=123
2E	2G	0r	2r	2c	0r
2D	2F	.	2d	2B	.
2.C	2.E	.	[1e	2A	.
.	.	.	.	[2G	.
4BB	4D	.	.	.	.
=124	=124	=124	=124	=124	=124
2AA	1C	1.c	2e]	2G]	0r
2AA	.	.	4d	2F#	.
.	.	.	4c	.	.
1GG	1r	.	2e	1G	.
.	.	2B	2d	.	.
=125	=125	=125	=125	=125	=125
0r	0r	2A	2f	0r	2r
.	.	2G	2e	.	2g
.	.	2.F	2d	.	[1a
.	.	.	[2c	.	.
.	.	4E	.	.	.
=126	=126	=126	=126	=126	=126
1r	1r	2D	2c]	1d	2a]
.	.	2D	2B	.	4g
.	.	.	.	.	4f
2r	1C	[1C	[1c	[1e	2a
[2G	.	.	.	.	2g
=127	=127	=127	=127	=127	=127
4G]	1AA	1C]	1c]	2e]	1.cc
8F#	.	.	.	.	.
8E	.	.	.	.	.
2F#	.	.	.	4d	.
.	.	.	.	4c	.
1G	1GG	1r	2r	2e	.
.	.	.	[2d	2d	2b
=128	=128	=128	=128	=128	=128
2F	2D	0r	2d]	2f	2a
2G	2E	.	2B	2e	1g
2A	2C	.	2c	2e	.
2A	2D	.	2A	[2d	2f#
=129	=129	=129	=129	=129	=129
0G	0GG	2r	1B	4d]	0g
.	.	.	.	4c	.
.	.	2.G	.	4B	.
.	.	.	.	4A	.
.	.	.	2r	1B	.
.	.	4A	.	.	.
.	.	[2B	2d	.	.
=130	=130	=130	=130	=130	=130
0GG	0G	2B]	4d	2r	0b
.	.	.	4c	.	.
.	.	4G	4B	2d	.
.	.	4A	4A	.	.
.	.	4B	2G	4d	.
.	.	4c	.	4c	.
.	.	2d	[2g	4B	.
.	.	.	.	4A	.
=131	=131	=131	=131	=131	=131
0C	0E	2.c	4g]	2G	[0cc
.	.	.	4f	.	.
.	.	.	4e	2.g	.
.	.	4d	4d	.	.
.	.	[1e	2.c	.	.
.	.	.	.	4f	.
.	.	.	.	4e	.
.	.	.	4d	4d	.
=132	=132	=132	=132	=132	=132
0AA	0A	2e]	2.e	2.c	0cc]
.	.	4A	.	.	.
.	.	4B	4d	4d	.
.	.	4c	4c	1e	.
.	.	4d	4B	.	.
.	.	4e	[2A	.	.
.	.	4c	.	.	.
=133	=133	=133	=133	=133	=133
0D	2.F	0d	4A]	0A	0a
.	.	.	4G	.	.
.	.	.	4F	.	.
.	4G	.	4E	.	.
.	2A	.	1F	.	.
.	[2D	.	.	.	.
=134	=134	=134	=134	=134	=134
0GG	2D]	0B	2.G	1d	0b
.	2.G	.	.	.	.
.	.	.	4A	.	.
.	.	.	4B	1r	.
.	4F	.	4c	.	.
.	4E	.	[2d	.	.
.	4D	.	.	.	.
=135	=135	=135	=135	=135	=135
0r	1E	1G	2d]	1g	0r
.	.	.	2c#	.	.
.	1D	[1A	2d	2f	.
.	.	.	2d	2d	.
=136	=136	=136	=136	=136	=136
1r	0r	1A]	2c	2e	2r
.	.	.	2A	2e	2cc
1G	.	1r	2B	[1d	2b
.	.	.	2B	.	2g
=137	=137	=137	=137	=137	=137
2F	1r	0r	2.A	1d]	2a
2D	.	.	.	.	2a
.	.	.	4B	.	.
2E	1C	.	2c	1r	[1g
2E	.	.	4G	.	.
.	.	.	4A	.	.
=138	=138	=138	=138	=138	=138
2D	2BB	1d	4B	0r	1g]
.	.	.	4c	.	.
2.G	2GG	.	4d	.	.
.	.	.	4B	.	.
.	2AA	2c	2e	.	1cc
8F#	.	.	.	.	.
8E	.	.	.	.	.
2F#	2AA	2A	4d	.	.
.	.	.	4c	.	.
=139	=139	=139	=139	=139	=139
2G	2GG	2B	2e	1r	2b
2GG	2G	2B	2d	.	2g
1D	2F	1A	2.d	2r	2a
.	2D	.	.	[2d	2a
.	.	.	4c	.	.
=140	=140	=140	=140	=140	=140
0r	2E	0r	4B	2d]	1g
.	.	.	4A	.	.
.	2E	.	1G	2c	.
.	2.D	.	.	2B	1r
.	.	.	2F#	[2A	.
.	4C	.	.	.	.
=141	=141	=141	=141	=141	=141
0r	2BB	1r	1G	4A]	1dd
.	.	.	.	4G	.
.	4AA	.	.	1G	.
.	4GG	.	.	.	.
.	1AA	1c	1r	.	2cc
.	.	.	.	2F#	2a
=142	=142	=142	=142	=142	=142
0r	1GG	2B	1g	1G	1b
.	.	2G	.	.	.
.	1r	1A	2e	1c	2a
.	.	.	2f	.	2cc
=143	=143	=143	=143	=143	=143
0r	0r	2G	2g	1d	2b-
.	.	2B-	2.d	.	2g
.	.	2A	.	2e	1a
.	.	.	4c	.	.
.	.	2F	[2c	2f	.
=144	=144	=144	=144	=144	=144
2r	0r	1G	2c]	1d	2g
2G	.	.	2B	.	4d
.	.	.	.	.	4e
2F	.	2D	2A	1d	4f
.	.	.	.	.	4g
2D	.	2d	2F	.	2a
=145	=145	=145	=145	=145	=145
1E	0r	2B	1G	2r	2g
.	.	2c	.	2g	2e
2D	.	1d	1A	2f	2f
2F	.	.	.	2d	[2a
=146	=146	=146	=146	=146	=146
2E	0r	1G	2B	1e	4a]
.	.	.	.	.	4g
2C	.	.	2c	.	2g
1D	.	2r	2.A	2d	2f
.	.	2D	.	2f	[2a
.	.	.	4B	.	.
=147	=147	=147	=147	=147	=147
2C	0r	4E	2c	2e	4a]
.	.	4F	.	.	4g
2E	.	4G	2G	2c	1g
.	.	4E	.	.	.
1D	.	4F	1A	1d	.
.	.	4G	.	.	.
.	.	[2A	.	.	2f
=148	=148	=148	=148	=148	=148
2C	0r	4A]	2r	1G	1g
.	.	4G	.	.	.
2BB	.	1G	2d	.	.
1AA	.	.	2c	4A	1cc
.	.	.	.	4B	.
.	.	2F	2A	4c	.
.	.	.	.	4A	.
=149	=149	=149	=149	=149	=149
1GG	2r	1G	2B	2d	2b
.	2G	.	2B	2.e	2g
1D	2F	1r	2A	.	1a
.	.	.	.	4d	.
.	2D	.	2F	[2d	.
=150	=150	=150	=150	=150	=150
0r	1E	1G	2G	2d]	2g
.	.	.	2g	2c#	2e
.	2D	1A	2f	1d	2.a
.	2F	.	2d	.	.
.	.	.	.	.	4f
=151	=151	=151	=151	=151	=151
2r	2E	2B	1e	1G	2g
2G	2C	2c	.	.	2e
2F	1D	2A	2d	1d	4f
.	.	.	.	.	4d
2D	.	2F	2f	.	[2a
=152	=152	=152	=152	=152	=152
1E	2C	2G	2e	1G	4a]
.	.	.	.	.	4g
.	2E	2E	2c	.	1g
2F	1D	1A	2.d	2r	.
[2D	.	.	.	[2d	2f#
.	.	.	4c	.	.
=153	=153	=153	=153	=153	=153
2D]	1GG	[0G	4B	4d]	[0g
.	.	.	4A	4c	.
2.G	.	.	2B	4B	.
.	.	.	.	4A	.
.	2.G	.	2G	2B	.
4F	.	.	.	.	.
4E	.	.	[2g	2G	.
4D	4F	.	.	.	.
=154	=154	=154	=154	=154	=154
1C	4E	0G]	4g]	2.g	0g]
.	4D	.	4f	.	.
.	1C	.	4e	.	.
.	.	.	4d	4f	.
1G	.	.	2c	2e	.
.	2BB	.	2d	2d	.
=155	=155	=155	=155	=155	=155
1E	0C	[0G	0e	0c	[0g
1C	.	.	.	.	.
=156	=156	=156	=156	=156	=156
0D	0GG	0G]	0d	0B	0g]
==	==	==	==	==	==
*-	*-	*-	*-	*-	*-
!!!CDT: 1525/^1526/-1594/2/2
!!!OCY: Italia
!!!AGN: Mass (Parody)
!!!AST: renaissance, vocal
!!!ASW: Motet 1520 (Josquin)
!!!PWK: Masses, Book 11
!!!RNB: Cadence finals: D
!!!YOR: Le Opere Complete, v. 28, p. 222
!!!YOO: Rome, Italy: Fratelli Scalera
!!!END: 1992//
!!!EED: John Miller
!!!YEC: Copyright 2000, John Miller
!!!YEN: United States of America
!!!YEM: Rights to all derivative electronic formats reserved.
!!!YEM: Refer to licensing agreement for further details.
!!!YEM: This file must be accompanied by the licensing agreement.
!!!YEM: A copy of the licensing agreement may be found at http://www.music-cog.ohio-state.edu/HumdrumDatabases/Palestrina/license.txt
!!!EMD: converted to Humdrum by Bret Aarden
